X: 10167
T: Dinner Time
R: jig
M: 6/8
K: Gmajor
GAG Bdd|~G3 BAG|DEG Bdd|GAG BAG|
DEG Bdd|edB dAA|BAG Bdg|dBA ~G3:|
dgd eBB|ded BAA|deg bee|dBG AGG|
dgd eBB|ded BAA|deg bee|dBG AGG:|

